!!!!SEGMENT: pl-wn--sd-xvi-qu-273--022_gomolka-mikolaj--boze-czemus-mie-czemus-mie-moj-wieczny.krn
!!!cenid: 15xx:227
!!!COM: Gomółka, Mikołaj
!!!COM-rismid: pe30013343
!!!CDT: ~1535->1591/04/30
!!!CNT: Polish
!!!GTL: Melodiae na psalterz polski
!!!OTL: XXII. Boże, czemuś mię, czemuś mię, mój wieczny
!!!ONB: PSALM XII. Deus meus Deus meus respice in me. quare me dereliquisti?
!!!PDT: 1580
!!!AGN: Sacred
!!!SMS-siglum: PL-Wn
!!!SMS-shelfmark: SD XVI.Qu.273
!!!SMS-shelfwork: 022 G
!!!NIFC-rismid:
!!!ONB-nifc: Melodiae na psalterz polski
**kern	**text	**kern	**text	**kern	**text	**kern	**text
*part4	*part4	*part3	*part3	*part2	*part2	*part1	*part1
*staff4	*staff4	*staff3	*staff3	*staff2	*staff2	*staff1	*staff1
*clefF4	*	*clefC3	*	*clefC2	*	*clefC1	*
*k[]	*	*k[]	*	*k[]	*	*k[]	*
*A:	*	*A:	*	*A:	*	*A:	*
*M2/1	*	*M2/1	*	*M2/1	*	*M2/1	*
*met(C|)	*	*met(C|)	*	*met(C|)	*	*met(C|)	*
*I"BASSUS.	*	*I"TENOR.	*	*I"ALTUS.	*	*I"CANTUS.	*
*xywh-24v:1316,5308,5062,1313	*	*xywh-24v:1309,4029,4959,1272	*	*xywh-24v:1281,2777,5007,1306	*	*xywh-24v:1295,1176,4959,1600	*
=1-	=1	=1-	=1	=1-	=1	=1-	=1
1D\	Bo-	1f\	Bo-	1a\	Bo-	1dd\	Bo-
1.AA/	-że,	1.e\	-że,	1.a\	-że,	1.cc#X\	-że,
=2-	=2	=2-	=2	=2-	=2	=2-	=2
.	.	.	.	.	.	.	.
2A\	cze-	2c/	cze-	2e/	cze-	2a\	cze-
2E\	-m(uś)	2B/	-(muś)	2e/	-m(uś)	2g#X\	-muś
1AA/	mię,	1A/	mię,	1c#X/	mię,	1a\	mię,
=3-	=3	=3-	=3	=3-	=3	=3-	=3
.	.	.	.	.	.	.	.
2AA/	cze-	2A/	cze-	2e/	cze-	2ccny\	cze-
2GG#X/	-(muś)	2B/	-(muś)	2e/	-(muś)	2b\	-(muś)
2AA/	mię,	2c#/	mię,	2e/	mię,	2a\	mię,
=4-	=4	=4-	=4	=4-	=4	=4-	=4
2D/	móy	2d\	móy	2f\	móy	2a\	móy
1G\	wie-	1d\	wie-	2g\	wie-	1b-\	wie-
.	.	.	.	2G/	-czny	.	.
2F#X\	-czny	2d\	-czny	2A/	Bo-	2a\	-(czny)
=5-	=5	=5-	=5	=5-	=5	=5-	=5
2G\	Bo-	1G/	Bo-	4B/	.	1gny\	Bo-
.	.	.	.	4A/	.	.	.
2GGny/	-że	.	.	4B/	.	.	.
.	.	.	.	4cny/	.	.	.
2D/	o-	2A/	-że	2d/	-że	2f#X/	-że
2D/	-pu-	1d\	o-	1f\	o-	2.a\	o-
=6-	=6	=6-	=6	=6-	=6	=6-	=6
2.A\	.	.	.	.	.	.	.
.	.	.	.	.	.	4bny\	.
.	.	2cny/	-pu-	2e/	-pu-	4cc\	-pu-
4G\	.	.	.	.	.	4b\	.
4Fny\	.	2d\	-śćił,	2f\	.	4a\	.
4E\	-śćił,	.	.	.	.	4g\	-śćił,
2D\	.	2f\	.	2f\	-śćił,	2a\	.
!!LO:PB:g=original
*xywh-25r:487,5288,4978,1360	*	*xywh-25r:493,4055,5086,1185	*	*xywh-25r:527,2755,5039,1279	*	*xywh-25r:520,1111,5092,1596	*
=7-	=7	=7-	=7	=7-	=7	=7-	=7
1E\	w móy	2.e\	w móy	1g\	w móy	2g/	w móy
.	.	.	.	.	.	4cc\	czás
.	.	4d\	czás	.	.	4b\	o-
2F\	cz(ás)	2c/	o-	2f\	czás	4a\	.
.	.	.	.	.	.	8g/L	.
.	.	.	.	.	.	8a\J	.
2D/	o-	2d\	-stá-	2f\	o-	4b\	-stá-
.	.	.	.	.	.	2a\	-te-
=8-	=8	=8-	=8	=8-	=8	=8-	=8
1E\	-stá-	2c/	-te-	2.e\	-stá-	.	.
.	.	.	.	.	.	8g/L	.
.	.	.	.	.	.	8fny/J	.
.	.	2B/	-czny?	.	.	4a\	-czny?
.	.	.	.	4d/	-te-	4g\	.
1AA/	-te-	1A/	Zwą-	1c#X/	-cz(ny)?	1a\	Zwą-
=9-	=9	=9-	=9	=9-	=9	=9-	=9
1A\	-czny?	1e\	-tpi(o-	1a\	Zwą-	1cc#X\	-t(pio-
2F#X\	Zwą-	2d\	-ny)	2a\	-(tpio-	2dd\	-ny)
1G\	-tpio-	2d\	móy	1g\	-ny)	2dd\	móy
=10-	=10	=10-	=10	=10-	=10	=10-	=10
.	.	1d\	sw(iat)	.	.	1b-X\	św(iat)
2GG/	-ny	.	.	2g\	m(óy)	.	.
2.D/	móy	2d\	ży-	2f#X\	świ(at)	2a\	ży-
.	.	2A/	-(wot)	2d/	ży-	1a\	-wot
4E\	świ(at)	.	.	.	.	.	.
=11-	=11	=11-	=11	=11-	=11	=11-	=11
2F#X\	ży-	2A/	o-	2d/	-wot	.	.
1G\	-(wot)	2B/	-płá-	1d/	o-	2g/	o-
.	.	2G/	-ká-	.	.	2bny\	-płá
2F#X\	o-	2A/	-ny,	1d/	-płá-	2a\	-ká-
=12-	=12	=12-	=12	=12-	=12	=12-	=12
2G\	-płá-	2B/	.	.	.	1g\	.
2E\	-ká-	2G/	.	2c#X/	-ká-	.	.
2D/	-(ny,)	2A/	Nié-	2d/	-(ny,)	2f#X/	-(ny,)
2D/	Nié-	1d\	-(ma)	2f#X\	Nié-	2a\	Nié-
=13-	=13	=13-	=13	=13-	=13	=13-	=13
2G\	-ma	.	.	2g\	-má	2b\	-(ma)
2E\	sye	2e\	sye	2g\	sye	2cc#X\	si(e)
2D/	cze-	2f#X\	cz(e-	2a\	cze-	1dd\	cz(e-
1G\	-go	1g\	-go)	1d/	-go	.	.
=14-	=14	=14-	=14	=14-	=14	=14-	=14
.	.	.	.	.	.	2b\	-go)
2C/	czło-	2e\	czło-	2e/	czło-	2ccny\	czło-
!!LO:PB:g=original
*xywh-25v:1391,5575,1771,1149	*	*xywh-25v:1370,4255,1942,1094	*	*xywh-25v:1309,3099,1710,1012	*	*xywh-25v:1295,1744,1758,1019	*
2D/	-wiek	2fny\	-wiek	4d/	-wiek	2a\	-wiek
.	.	.	.	4cny/	iąć	.	.
2E\	iąć	2e\	iąć	2B/	stro-	2g#X/	iąć
=15-	=15	=15-	=15	=15-	=15	=15-	=15
2Fny\	stro-	2c/	stro-	2A/	-ská-	1a\	stro-
2D\	-ská-	2d\	-ská-	2fny\	.	.	.
1E\	.	1B/	-ny.	1e\	-ny.	1g#X\	-ská-
=16-	=16	=16-	=16	=16-	=16	=16-	=16
00AA/	-ny.	00c#X\	.	00e\	.	00a\	-ny.
==	==	==	==	==	==	==	==
*-	*-	*-	*-	*-	*-	*-	*-
!!!RDF**kern: l = terminal long
!!!system-decoration: s1,s2,s3,s4
!!!ENC: Marta Lawrence
!!!END: 2020-02-05
!!!URL-scan: https://polona.pl/item/melodiae-na-psalterz-polski,Nzk3MTM4ODQ/65 Scan on Polona
!!!IIIF: https://polona.pl/iiif/item/Nzk3MTM4ODQ/manifest.json
